Numix-Light/scalable/status/avatar-default-symbolic-old.svg

<?xml version="1.0" encoding="UTF-8" standalone="no"?>
<svg
   xmlns:dc="http://purl.org/dc/elements/1.1/"
   xmlns:cc="http://creativecommons.org/ns#"
   xmlns:rdf="http://www.w3.org/1999/02/22-rdf-syntax-ns#"
   xmlns:svg="http://www.w3.org/2000/svg"
   xmlns="http://www.w3.org/2000/svg"
   xmlns:sodipodi="http://sodipodi.sourceforge.net/DTD/sodipodi-0.dtd"
   xmlns:inkscape="http://www.inkscape.org/namespaces/inkscape"
   width="16"
   viewBox="0 0 16 16"
   height="16"
   id="svg2"
   version="1.1"
   inkscape:version="0.91 r"
   sodipodi:docname="avatar-default-symbolic-old.svg">
  <metadata
     id="metadata10">
    <rdf:RDF>
      <cc:Work
         rdf:about="">
        <dc:format>image/svg+xml</dc:format>
        <dc:type
           rdf:resource="http://purl.org/dc/dcmitype/StillImage" />
        <dc:title />
      </cc:Work>
    </rdf:RDF>
  </metadata>
  <defs
     id="defs8" />
  <sodipodi:namedview
     pagecolor="#ffffff"
     bordercolor="#666666"
     borderopacity="1"
     objecttolerance="10"
     gridtolerance="10"
     guidetolerance="10"
     inkscape:pageopacity="0"
     inkscape:pageshadow="2"
     inkscape:window-width="640"
     inkscape:window-height="480"
     id="namedview6"
     showgrid="false"
     inkscape:zoom="14.75"
     inkscape:cx="8"
     inkscape:cy="8"
     inkscape:window-x="0"
     inkscape:window-y="28"
     inkscape:window-maximized="0"
     inkscape:current-layer="svg2" />
  <path
     d="m 7.066128,0.9999857 1.867747,0 C 12,0.9999857 12,4 12,4 l 0,3 c 0,0.928566 -2,2 -2,2 l 0,2 4,2 0,2 L 2,15 2,13 6,11 6,9 C 6,9 3.99385,7.9285699 4,7 L 4,4 C 4,4 4,1 7.066128,0.9999857 z"
     fill="#353535"
     color="#000000"
     id="path4" />
</svg>

<svg xmlns="http://www.w3.org/2000/svg" viewBox="0 0 16 16">
 <path d="m 7.07 1 1.868 0 c 3.066 0 3.066 3 3.066 3 l 0 3 c 0 0.929 -2 2 -2 2 l 0 2 4 2 0 2 l -12 0 0 -2 4 -2 0 -2 c 0 0 -2.01 -1.071 -2 -2 l 0 -3 c 0 0 0 -3 3.066 -3 z" style="fill:#353535;color:#000"/>
</svg>
